src/16/actions/view-time-schedule-baselined-remove.svg

<svg xmlns="http://www.w3.org/2000/svg" viewBox="0 0 16 16">
  <defs id="defs3051">
    <style type="text/css" id="current-color-scheme">
      .ColorScheme-Text {
        color:#5d656b;
      }
      .ColorScheme-NegativeText {
        color:#da4453;
      }
      </style>
  </defs>
  <g
     transform="translate(-421.71429,-531.79074)">
    <path
       style="fill:currentColor;fill-opacity:1;stroke:none" 
       d="M 2 2 L 2 14 L 8 14 L 8 13 L 3 13 L 3 5 L 13 5 L 13 8 L 14 8 L 14 2 L 12 2 L 12 4 L 10 4 L 10 2 L 6 2 L 6 4 L 4 4 L 4 2 L 2 2 z M 4 6 L 4 9 L 5 9 L 5 8 L 8 8 L 8 9 L 9 9 L 9 6 L 8 6 L 8 7 L 5 7 L 5 6 L 4 6 z "
       transform="translate(421.71429,531.79074)"
     class="ColorScheme-Text"
       id="rect4449" />
    <path
        style="fill:currentColor;fill-opacity:1;stroke:none" 
     class="ColorScheme-NegativeText"
    d="m 430.71429,541.62397 1.66667,1.66672 -1.66667,1.66665 0.83333,0.83332 1.66667,-1.66657 1.66667,1.66657 0.83333,-0.83332 -1.66666,-1.66665 1.66666,-1.66672 -0.83333,-0.83332 -1.66667,1.66672 -1.66667,-1.66672 -0.83333,0.83332 z" />
  </g>
</svg>

<svg xmlns="http://www.w3.org/2000/svg" viewBox="0 0 16 16"><g fill="currentColor"><path d="M2 2v12h6v-1H3V5h10v3h1V2h-2v2h-2V2H6v2H4V2H2zm2 4v3h1V8h3v1h1V6H8v1H5V6H4z" color="#5d656b"/><path d="M9 9.833l1.667 1.667L9 13.167l.833.833 1.667-1.667L13.167 14l.833-.833-1.667-1.667L14 9.833 13.167 9 11.5 10.667 9.833 9 9 9.833z" color="#da4453"/></g></svg>
